src/pos-icons/wifi-strength-1-lock.svg

<svg height="24" viewBox="0 0 24 24" width="24" xmlns="http://www.w3.org/2000/svg"><path d="m12 3c4.22 0 8.32 1.41 11.65 4l-2.11 2.62-1.04-.12c-.57 0-1.13.1-1.67.29l1.88-2.34c-2.63-1.59-5.64-2.45-8.71-2.45-3.08 0-6.09.85-8.73 2.44l5.12 6.36c1.11-.52 2.36-.8 3.61-.8 1.23 0 2.44.28 3.55.79l-.05.71v2.64l-3.5 4.36-11.62-14.5c3.32-2.58 7.41-4 11.62-4m11 13c.5 0 1 .5 1 1v4c0 .5-.5 1-1 1h-5c-.5 0-1-.5-1-1v-4c0-.5.5-1 1-1v-1.5c0-1.4 1.1-2.5 2.5-2.5s2.5 1.1 2.5 2.5zm-1 0v-1.5c0-.8-.7-1.5-1.5-1.5s-1.5.7-1.5 1.5v1.5z"/></svg>

<?xml version="1.0" encoding="UTF-8"?><!DOCTYPE svg PUBLIC "-//W3C//DTD SVG 1.1//EN" "http://www.w3.org/Graphics/SVG/1.1/DTD/svg11.dtd"><svg xmlns="http://www.w3.org/2000/svg" xmlns:xlink="http://www.w3.org/1999/xlink" version="1.1" id="mdi-wifi-strength-1-lock" width="24" height="24" viewBox="0 0 24 24"><path d="M12,3C16.22,3 20.32,4.41 23.65,7L21.54,9.62L20.5,9.5C19.93,9.5 19.37,9.6 18.83,9.79L20.71,7.45C18.08,5.86 15.07,5 12,5C8.92,5 5.91,5.85 3.27,7.44L8.39,13.8C9.5,13.28 10.75,13 12,13C13.23,13 14.44,13.28 15.55,13.79L15.5,14.5V17.14L12,21.5L0.38,7C3.7,4.42 7.79,3 12,3M23,16C23.5,16 24,16.5 24,17V21C24,21.5 23.5,22 23,22H18C17.5,22 17,21.5 17,21V17C17,16.5 17.5,16 18,16V14.5C18,13.1 19.1,12 20.5,12C21.9,12 23,13.1 23,14.5V16M22,16V14.5C22,13.7 21.3,13 20.5,13C19.7,13 19,13.7 19,14.5V16H22Z" /></svg>
